frontend/public/svg/logos/dropbox.svg

<svg width="155" height="127" viewBox="0 0 155 127" fill="none" xmlns="http://www.w3.org/2000/svg">
<g clip-path="url(#clip0)">
<path d="M134.924 82.3739C135.576 85.9181 136.166 89.2188 136.791 92.513C137.861 98.145 136.561 100.93 131.372 103.314C116.605 110.101 101.816 116.839 87.004 123.53C85.3829 124.297 83.6935 124.912 81.9581 125.367C80.673 125.728 79.3203 125.773 78.0148 125.499C74.5809 124.571 71.1778 123.483 67.8449 122.237C53.6678 116.939 39.5086 111.592 25.3671 106.196C23.5894 105.506 21.8536 104.713 20.1684 103.821C16.7495 102.04 15.7459 99.6914 15.9119 95.8393C16.1193 91.0408 15.962 86.2273 15.962 81.117C14.0842 80.0209 11.951 78.7942 9.8376 77.5347C8.75392 76.9453 7.71599 76.2752 6.73249 75.5309C4.29157 73.5212 4.14049 71.4754 6.42323 69.2819C8.84778 66.9519 11.4076 64.7529 13.9942 62.6027C18.2144 59.0913 22.5049 55.6628 27.1649 51.8744C24.4798 50.5342 22.0665 49.2825 19.6131 48.1142C14.3539 45.6103 9.04015 43.2187 3.81567 40.6458C0.520198 39.0234 0.275392 36.0061 3.31621 33.7575C7.37502 30.7574 11.6241 28.0165 15.7472 25.1017C25.4571 18.2374 35.149 11.348 44.823 4.43415C48.2609 1.96894 48.9888 1.87465 52.596 4.17905C58.647 8.04311 64.7072 11.8934 70.7767 15.7303C72.1944 16.6262 73.6646 17.4369 75.2359 18.3637C77.3362 16.9998 79.3853 15.6576 81.4455 14.3292C87.5731 10.3767 93.6803 6.39154 99.8459 2.49814C101.134 1.61383 102.625 1.06834 104.18 0.912103C105.735 0.755867 107.305 0.993725 108.743 1.60401C124.116 7.37975 137.819 16.0875 151.274 25.2552C154.654 27.5583 154.697 29.5097 152.849 33.2515C151.45 36.0882 149.338 37.7835 146.745 39.2005C140.746 42.4822 134.757 45.7822 128.466 49.2378C129.051 49.8913 129.679 50.5052 130.346 51.0754C136.831 55.8871 143.309 60.7088 149.846 65.4495C153.92 68.4031 153.696 73.0441 149.165 75.3786C144.589 77.7369 139.923 79.9277 134.924 82.3739ZM39.7285 51.369C40.4061 51.855 41.114 52.2975 41.8479 52.6936C52.5639 57.5505 63.3377 62.276 73.9803 67.2853C76.6549 68.5442 78.5944 68.2521 81.0878 66.881C91.983 60.8897 103.004 55.1383 113.97 49.2805C114.197 49.1591 114.298 48.8032 114.463 48.5472C103.608 40.7368 91.8806 34.61 80.2077 28.3892C78.8602 27.6672 77.8087 27.8378 76.4967 28.6517C64.9726 35.7992 53.3934 42.8595 41.8373 49.9519C41.1849 50.3516 40.566 50.8039 39.7285 51.369ZM80.8719 20.9804C82.793 21.999 83.8595 22.5689 84.93 23.1321C93.2596 27.5144 101.612 31.8539 109.91 36.2954C113.663 38.3044 117.367 40.4218 120.973 42.6809C122.456 43.6089 123.533 43.4911 124.934 42.6431C128.676 40.38 132.524 38.2946 136.275 36.0473C138.761 34.5588 141.152 32.9127 143.767 31.2187C142.99 30.6201 142.468 30.2263 141.955 29.822C130.949 21.1544 118.712 14.6317 105.927 9.04167C105.393 8.75117 104.793 8.6033 104.185 8.6119C103.577 8.6205 102.982 8.7855 102.457 9.09102C95.5056 12.9457 88.5372 16.7663 80.8719 20.9839V20.9804ZM32.4766 46.8179C49.4285 36.9591 66.6385 25.548 68.727 22.7652L49.1024 9.65856L10.1014 37.8359L32.4766 46.8179ZM122.209 54.3979C108.986 59.5718 97.3164 67.2624 84.611 73.7969L106.939 88.7522L142.419 70.5841L122.209 54.3979ZM31.9089 54.9821L15.0633 71.436L46.7225 90.0636L69.7679 73.682L31.9089 54.9821ZM73.0687 79.4125C72.8114 79.4558 72.5626 79.5379 72.3303 79.656C65.9026 84.9133 59.3945 90.078 53.0995 95.4888C49.5553 98.5375 45.8686 98.6727 41.8453 97.0201C40.8306 96.5429 39.8599 95.9778 38.9448 95.33C34.6944 92.6128 30.4617 89.866 26.2054 87.1579C25.2963 86.5791 24.3137 86.1144 22.858 85.3202C23.3719 88.9412 24.0453 92.0148 24.1706 95.1154C24.2697 97.5438 25.2989 98.6445 27.4523 99.4308C41.1363 104.434 54.7823 109.538 68.4513 114.584C69.7837 115.076 71.1889 115.367 73.068 115.897L73.0687 79.4125ZM128.753 85.8984C128.233 85.9496 127.719 86.0586 127.222 86.2227C120.824 89.4564 114.405 92.6548 108.069 96.0021C106.198 96.9925 104.459 97.1973 102.654 96.2403C101.075 95.3943 99.5526 94.4485 98.0948 93.4082C93.0633 89.8417 88.0765 86.2128 83.0594 82.6266C82.1813 81.9991 81.2381 81.4622 79.8381 80.5749C80.5516 92.9862 80.713 104.859 81.5105 117.015C84.5296 115.636 86.9797 114.539 89.4161 113.405C101.906 107.592 114.394 101.772 126.88 95.9463C129.601 94.6776 129.618 94.6678 129.363 91.6552C129.205 89.7925 128.97 87.9272 128.753 85.9017V85.8984Z" fill="black"/>
</g>
<defs>
<clipPath id="clip0">
<rect width="153.583" height="125.361" fill="white" transform="translate(0.759155 0.737305)"/>
</clipPath>
</defs>
</svg>

<svg xmlns="http://www.w3.org/2000/svg" width="155" height="127" fill="none" viewBox="0 0 155 127"><g clip-path="url(#a)"><path fill="#000" d="M134.924 82.374c.652 3.544 1.242 6.845 1.867 10.139 1.07 5.632-.23 8.417-5.419 10.801a7474 7474 0 0 1-44.368 20.216 29 29 0 0 1-5.046 1.837 8.3 8.3 0 0 1-3.943.132 114 114 0 0 1-10.17-3.262 6592 6592 0 0 1-42.478-16.041 49 49 0 0 1-5.199-2.375c-3.418-1.781-4.422-4.13-4.256-7.982.207-4.798.05-9.612.05-14.722-1.878-1.096-4.011-2.323-6.124-3.582a25 25 0 0 1-3.106-2.004c-2.44-2.01-2.592-4.056-.309-6.25 2.425-2.33 4.985-4.528 7.571-6.678 4.22-3.512 8.51-6.94 13.17-10.729-2.684-1.34-5.097-2.592-7.55-3.76-5.26-2.504-10.574-4.895-15.798-7.468-3.296-1.623-3.54-4.64-.5-6.889 4.059-3 8.308-5.74 12.431-8.655A6933 6933 0 0 0 44.823 4.434c3.438-2.465 4.166-2.56 7.773-.255a4709 4709 0 0 0 18.18 11.551c1.418.896 2.889 1.707 4.46 2.634 2.1-1.364 4.15-2.706 6.21-4.035 6.127-3.952 12.234-7.937 18.4-11.83a9.3 9.3 0 0 1 8.897-.895c15.373 5.776 29.076 14.483 42.531 23.651 3.38 2.303 3.423 4.255 1.575 7.997-1.399 2.836-3.511 4.531-6.104 5.948-5.999 3.282-11.988 6.582-18.279 10.038a20 20 0 0 0 1.88 1.837c6.485 4.812 12.963 9.634 19.5 14.374 4.074 2.954 3.85 7.595-.681 9.93-4.576 2.358-9.242 4.549-14.241 6.995M39.728 51.369q1.018.73 2.12 1.325c10.716 4.856 21.49 9.582 32.132 14.591 2.675 1.26 4.614.967 7.108-.404 10.895-5.991 21.916-11.743 32.882-17.6.227-.122.328-.478.493-.734-10.855-7.81-22.582-13.937-34.255-20.158-1.348-.722-2.4-.551-3.711.263-11.524 7.147-23.104 14.207-34.66 21.3-.652.4-1.271.852-2.109 1.417M80.873 20.98c1.921 1.019 2.987 1.589 4.058 2.152 8.33 4.382 16.682 8.722 24.98 13.163 3.753 2.01 7.457 4.127 11.063 6.386 1.483.928 2.56.81 3.961-.038 3.742-2.263 7.59-4.348 11.341-6.596 2.486-1.488 4.877-3.134 7.492-4.828-.777-.599-1.299-.993-1.812-1.397-11.006-8.668-23.243-15.19-36.028-20.78a3.54 3.54 0 0 0-3.47.049c-6.951 3.855-13.92 7.675-21.585 11.893zM32.477 46.818c16.952-9.859 34.162-21.27 36.25-24.053L49.102 9.66l-39 28.177zm89.732 7.58c-13.223 5.174-24.893 12.864-37.598 19.399l22.328 14.955 35.48-18.168zm-90.3.584L15.063 71.436l31.66 18.628 23.045-16.382zm41.16 24.43a2.6 2.6 0 0 0-.739.244c-6.427 5.257-12.935 10.422-19.23 15.833-3.545 3.048-7.231 3.184-11.255 1.531a19 19 0 0 1-2.9-1.69c-4.25-2.717-8.483-5.464-12.74-8.172-.909-.579-1.891-1.044-3.347-1.838.514 3.621 1.187 6.695 1.313 9.795.099 2.429 1.128 3.53 3.281 4.316 13.684 5.003 27.33 10.107 41 15.153 1.332.492 2.737.783 4.616 1.313zm55.684 6.486c-.52.052-1.034.16-1.531.325-6.398 3.233-12.817 6.432-19.153 9.78-1.871.99-3.61 1.194-5.415.237a42 42 0 0 1-4.56-2.832c-5.03-3.566-10.017-7.195-15.035-10.781-.878-.628-1.82-1.165-3.22-2.052.713 12.411.874 24.284 1.671 36.44 3.02-1.379 5.47-2.476 7.906-3.61a43275 43275 0 0 0 37.464-17.459c2.721-1.268 2.738-1.278 2.483-4.29-.158-1.864-.393-3.729-.61-5.754z"/></g><defs><clipPath id="a"><path fill="#fff" d="M.76.737h153.582v125.361H.76z"/></clipPath></defs></svg>
